copytrade/img/logo-small.svg

<svg width="61" height="36" viewBox="0 0 61 36" fill="none" xmlns="http://www.w3.org/2000/svg">
<path d="M12.5522 18.7552L0.693848 27.3652C5.3525 22.3251 5.51426 20.1269 6.41128 16.8651C8.31709 9.93514 14.8816 6.67993 19.5402 6.36493C23.2671 6.11293 25.9282 7.69521 26.6341 8.46521L17.5285 15.0802C18.2923 14.2781 19.9472 12.903 19.8578 12.1399C19.7718 11.4049 18.6932 11.2999 17.5285 11.6149C14.9021 12.3253 13.1522 16.4802 12.5522 18.7552Z" fill="#282C33"/>
<path d="M22.293 15.6049C22.293 15.1297 22.4342 13.6449 22.293 12.8749L35.2102 3.2149C32.8809 5.6299 28.3069 10.6279 28.6457 11.2999C28.9846 11.9719 28.9987 14.4499 28.9634 15.6049C26.5988 15.7449 22.293 15.6329 22.293 15.6049Z" fill="#282C33"/>
<path d="M12.0228 20.4349L5.03486 25.4749C5.03486 26.1049 5.31015 27.8269 6.41128 29.6749C7.51242 31.5229 10.117 32.1249 11.2817 32.1949L26.1047 21.3799C23.4577 23.3112 21.0225 23.0599 21.0225 23.0599C19.6461 26.6299 17.3803 27.3649 15.0933 27.3649C12.2346 27.3649 11.5993 25.7899 11.5993 24.0049C11.5993 22.5769 11.8817 21.0299 12.0228 20.4349Z" fill="#282C33"/>
<path d="M29.5987 20.0149L8.84649 35.2399C10.5405 34.3649 11.1758 32.8249 16.9991 32.1949C20.0804 31.8616 24.94 29.0449 26.2105 25.3699C27.227 22.4299 28.8928 20.5749 29.5987 20.0149Z" fill="#282C33"/>
<path d="M44.4215 11.4049H38.9158L53.3153 0.799927C50.88 3.00493 47.5978 6.46993 49.186 6.46993H60.1973L59.0327 11.4049H51.0918L49.0801 19.4899L38.5982 27.2599C39.5158 26.2449 41.2451 25.0549 41.8804 22.0099C42.2508 20.2342 43.7509 14.2049 44.4215 11.4049Z" fill="#282C33"/>
<path d="M40.6098 27.2599C43.9204 24.8479 50.7294 19.877 52.5694 18.4979C52.6408 18.443 52.7129 18.3886 52.7859 18.3349C52.7242 18.3817 52.6518 18.4362 52.5694 18.4979C47.3409 22.5247 46.3244 29.8082 46.1155 31.8799H39.4452L40.6098 27.2599Z" fill="#282C33"/>
<path d="M37.7511 6.46993H43.5744L32.0337 15.1849C34.6807 12.5599 37.5394 10.4599 37.7511 6.46993Z" fill="#282C33"/>
</svg>

<svg width="61" height="36" fill="none" xmlns="http://www.w3.org/2000/svg"><path d="M12.552 18.755L.694 27.365c4.659-5.04 4.82-7.238 5.717-10.5 1.906-6.93 8.47-10.185 13.13-10.5 3.726-.252 6.387 1.33 7.093 2.1L17.53 15.08c.763-.802 2.418-2.177 2.329-2.94-.086-.735-1.165-.84-2.33-.525-2.626.71-4.376 4.865-4.976 7.14zm9.741-3.15c0-.475.141-1.96 0-2.73l12.917-9.66c-2.33 2.415-6.903 7.413-6.564 8.085.339.672.353 3.15.317 4.305-2.364.14-6.67.028-6.67 0zm-10.27 4.83l-6.988 5.04c0 .63.275 2.352 1.376 4.2 1.101 1.848 3.706 2.45 4.87 2.52L26.106 21.38c-2.647 1.931-5.082 1.68-5.082 1.68-1.377 3.57-3.643 4.305-5.93 4.305-2.858 0-3.494-1.575-3.494-3.36 0-1.428.283-2.975.424-3.57zm17.576-.42L8.846 35.24c1.694-.875 2.33-2.415 8.153-3.045 3.081-.333 7.941-3.15 9.212-6.825 1.016-2.94 2.682-4.795 3.388-5.355zm14.823-8.61h-5.506L53.316.8c-2.436 2.205-5.718 5.67-4.13 5.67h11.011l-1.164 4.935h-7.941L49.08 19.49l-10.482 7.77c.918-1.015 2.647-2.205 3.282-5.25.37-1.776 1.87-7.805 2.541-10.605zM40.61 27.26c3.31-2.412 10.12-7.383 11.96-8.762-5.23 4.027-6.246 11.31-6.455 13.382h-6.67l1.165-4.62zM37.751 6.47h5.823l-11.54 8.715c2.647-2.625 5.505-4.725 5.717-8.715z" fill="#282C33"/></svg>
